src/assets/sun.svg

<svg width="18" height="18" viewBox="0 0 18 18" fill="none" xmlns="http://www.w3.org/2000/svg">
<path d="M10.125 0H7.875V2.25H10.125V0Z" fill="#7D8FFF"/>
<path d="M16.0809 3.43302L14.4904 1.84137L12.8987 3.43189L14.4892 5.02354L16.0809 3.43302Z" fill="#7D8FFF"/>
<path d="M18 7.875H15.75V10.125H18V7.875Z" fill="#7D8FFF"/>
<path d="M12.9772 14.6468L14.5688 16.2374L16.1594 14.6457L14.5677 13.0552L12.9772 14.6468Z" fill="#7D8FFF"/>
<path d="M10.125 15.75H7.875V18H10.125V15.75Z" fill="#7D8FFF"/>
<path d="M1.76189 14.5671L3.35242 16.1588L4.94407 14.5682L3.35354 12.9766L1.76189 14.5671Z" fill="#7D8FFF"/>
<path d="M2.25 7.875H0V10.125H2.25V7.875Z" fill="#7D8FFF"/>
<path d="M5.02268 3.51039L3.43103 1.91986L1.84051 3.51151L3.43216 5.10204L5.02268 3.51039Z" fill="#7D8FFF"/>
<path d="M9 4.5C6.525 4.5 4.5 6.525 4.5 9C4.5 11.475 6.525 13.5 9 13.5C11.475 13.5 13.5 11.475 13.5 9C13.5 6.525 11.475 4.5 9 4.5Z" fill="#546BFB"/>
</svg>

<svg width="18" height="18" fill="none" xmlns="http://www.w3.org/2000/svg"><path d="M10.125 0h-2.25v2.25h2.25V0zm5.955 3.433-1.59-1.592-1.591 1.59 1.59 1.593 1.592-1.591zM18 7.875h-2.25v2.25H18v-2.25zm-5.023 6.772 1.592 1.59 1.59-1.591-1.591-1.59-1.59 1.59zm-2.852 1.103h-2.25V18h2.25v-2.25zm-8.363-1.183 1.59 1.592 1.592-1.59-1.59-1.592-1.592 1.59zm.488-6.692H0v2.25h2.25v-2.25zM5.023 3.51 3.43 1.92 1.84 3.512l1.591 1.59 1.59-1.592z" fill="#7D8FFF"/><path d="M9 4.5A4.513 4.513 0 0 0 4.5 9c0 2.475 2.025 4.5 4.5 4.5s4.5-2.025 4.5-4.5S11.475 4.5 9 4.5z" fill="#546BFB"/></svg>
